public/assets/images/about/icons/15.svg

<svg width="48" height="60" viewBox="0 0 48 60" fill="none" xmlns="http://www.w3.org/2000/svg">
<path d="M44.7273 40.092C43.2728 39.5465 41.6364 39.7283 40.1819 40.6374L31.4546 45.9102C31.091 45.6374 30.7273 45.3647 30.3637 45.2738L17.1819 40.5465C16.1819 40.1829 15.091 40.1829 14.1819 40.6374C14.1819 40.6374 14.091 40.6374 14.091 40.7283L8.81824 43.9102V43.6374C8.81824 42.6374 8.00006 41.8192 7.00006 41.8192H2.63642C1.63642 41.8192 0.818237 42.6374 0.818237 43.6374V57.2738C0.818237 58.2738 1.63642 59.092 2.63642 59.092H6.90915C7.90915 59.092 8.72733 58.2738 8.72733 57.2738V56.8192C10.7273 55.7283 11.5455 54.7283 12.9091 54.9102L27.4546 58.092C28.6364 58.4556 29.9091 58.1829 31.0001 57.4556L45.8182 45.7283C47.8182 44.3647 47.6364 41.1829 44.7273 40.092ZM2.63642 57.2738V43.6374H6.90915V57.2738H2.63642ZM44.7273 44.2738C29.6364 55.7283 30.0001 56.9102 27.9091 56.2738L13.2728 53.092H13.1819C11.091 52.7283 9.63642 54.1829 8.72733 54.6374V45.9102L14.9091 42.1829C15.4546 42.0011 16.0001 42.0011 16.5455 42.1829L29.7273 46.9102C30.9091 47.3647 31.3637 48.8192 30.6364 49.8192C30.091 50.5465 29.1819 50.8192 28.2728 50.4556L20.4546 47.4556C20.0001 47.2738 19.4546 47.5465 19.2728 48.0011C19.091 48.4556 19.3637 49.0011 19.8182 49.1829L27.6364 52.1829C29.2728 52.9102 31.091 52.3647 32.091 51.0011C32.8182 50.0011 33.091 48.8192 32.5455 47.4556L41.1819 42.2738C42.091 41.7283 43.1819 41.5465 44.1819 41.9102C45.5455 42.3647 45.6364 43.6374 44.7273 44.2738Z" fill="#615EFC"/>
<path d="M22.4546 31.0026C23.2728 31.548 23.8182 32.4571 24 33.3662C23.1819 33.8207 22.7273 34.7298 22.7273 35.6389C22.7273 36.9117 23.6364 38.0026 24.9091 38.2753L25.2728 41.1844C25.3637 41.6389 25.7273 42.0026 26.1819 42.0026H33.2728C33.7273 42.0026 34.091 41.6389 34.1819 41.1844L34.5455 38.1844C35.6364 37.8207 36.5455 36.8207 36.5455 35.6389C36.5455 34.6389 36 33.8207 35.2728 33.3662C35.3637 32.4571 35.9091 31.548 36.8182 30.9117C40.1819 28.548 42.2728 24.7298 42.2728 20.6389C42.2728 13.548 36.3637 7.82074 29.1819 8.18438C22.7273 8.45711 17.3637 14.0026 17.2728 20.4571C17 24.7298 19 28.6389 22.4546 31.0026ZM26.9091 40.2753L26.7273 38.4571H32.6364L32.4546 40.2753H26.9091ZM33.6364 36.6389H25.3637C24.9091 36.6389 24.4546 36.2753 24.4546 35.7298C24.4546 35.2753 24.8182 34.8207 25.3637 34.8207H33.6364C34.091 34.8207 34.5455 35.1844 34.5455 35.7298C34.5455 36.1844 34.1819 36.6389 33.6364 36.6389ZM29 10.0935C35.091 9.82074 40.1819 14.7298 40.1819 20.7298C40.1819 24.2753 38.4546 27.548 35.5455 29.548C34.2728 30.3662 33.4546 31.6389 33.2728 33.0935H25.8182C25.6364 31.7298 24.8182 30.4571 23.5455 29.548C20.6364 27.548 18.9091 24.1844 18.9091 20.6389C19 15.0935 23.5455 10.3662 29 10.0935Z" fill="#615EFC"/>
<path d="M29.2723 14.6372C32.7269 14.4554 35.636 17.2736 35.636 20.7281C35.636 21.2736 35.9996 21.6372 36.5451 21.6372C37.0905 21.6372 37.4542 21.2736 37.4542 20.7281C37.4542 16.2736 33.7269 12.6372 29.1814 12.819C28.636 12.819 28.2723 13.2736 28.2723 13.7281C28.2723 14.2736 28.7269 14.6372 29.2723 14.6372Z" fill="#615EFC"/>
<path d="M29.5456 6.27379C30.091 6.27379 30.4547 5.91016 30.4547 5.3647V1.81925C30.4547 1.27379 30.091 0.910156 29.5456 0.910156C29.0001 0.910156 28.6365 1.27379 28.6365 1.81925V5.3647C28.6365 5.91016 29.0001 6.27379 29.5456 6.27379Z" fill="#615EFC"/>
<path d="M23.0905 6.72742C23.2723 7.09106 23.545 7.27287 23.9087 7.27287C23.9996 7.27287 24.1814 7.27287 24.2723 7.18197C24.7269 7.00015 24.9996 6.45469 24.7269 6.00015L23.3632 2.72742C23.1814 2.27288 22.6359 2.00015 22.1814 2.27288C21.7269 2.45469 21.4541 3.00015 21.7269 3.45469L23.0905 6.72742Z" fill="#615EFC"/>
<path d="M18.5455 10.1847C18.9091 10.5483 19.4546 10.5483 19.8182 10.1847C20.1818 9.82102 20.1818 9.27557 19.8182 8.91193L17.2727 6.36648C16.9091 6.00284 16.3637 6.00284 16 6.36648C15.6364 6.73011 15.6364 7.27557 16 7.6392L18.5455 10.1847Z" fill="#615EFC"/>
<path d="M40.4546 10.4542L43.0001 7.90874C43.3637 7.5451 43.3637 6.99964 43.0001 6.63601C42.6365 6.27237 42.091 6.27237 41.7274 6.63601L39.1819 9.09055C38.8183 9.45419 38.8183 9.99964 39.1819 10.3633C39.4546 10.7269 40.091 10.7269 40.4546 10.4542Z" fill="#615EFC"/>
<path d="M34.7273 7.36548C34.8183 7.45639 35.0001 7.45639 35.091 7.45639C35.4546 7.45639 35.8183 7.27457 35.9092 6.91094L37.2728 3.63821C37.4546 3.18366 37.2728 2.63821 36.8183 2.45639C36.3637 2.27457 35.8183 2.45639 35.6364 2.91094L34.2728 6.18367C34.091 6.63821 34.2728 7.18367 34.7273 7.36548Z" fill="#615EFC"/>
</svg>

<svg xmlns="http://www.w3.org/2000/svg" width="48" height="60" fill="none" viewBox="0 0 48 60"><path fill="#615efc" d="M44.727 40.092c-1.454-.545-3.09-.364-4.545.545l-8.727 5.273c-.364-.273-.728-.545-1.091-.636l-13.182-4.727c-1-.364-2.091-.364-3 .09 0 0-.091 0-.091.091L8.818 43.91v-.273c0-1-.818-1.818-1.818-1.818H2.636c-1 0-1.818.818-1.818 1.818v13.637c0 1 .818 1.818 1.818 1.818H6.91c1 0 1.818-.818 1.818-1.818v-.455c2-1.09 2.819-2.09 4.182-1.909l14.546 3.182c1.181.364 2.454.09 3.545-.636l14.818-11.728c2-1.363 1.818-4.545-1.09-5.636M2.637 57.274V43.637h4.272v13.637zm42.09-13C29.637 55.728 30 56.91 27.91 56.274l-14.636-3.182h-.091c-2.091-.364-3.546 1.09-4.455 1.545V45.91l6.182-3.727a2.52 2.52 0 0 1 1.636 0l13.182 4.727c1.182.455 1.637 1.91.91 2.91-.546.727-1.455 1-2.364.636l-7.818-3c-.455-.182-1 .09-1.182.545s.09 1 .545 1.182l7.818 3A3.65 3.65 0 0 0 32.091 51c.727-1 1-2.182.454-3.545l8.637-5.182c.909-.546 2-.727 3-.364 1.363.455 1.454 1.727.545 2.364"/><path fill="#615efc" d="M22.455 31.003c.818.545 1.363 1.454 1.545 2.363-.818.455-1.273 1.364-1.273 2.273 0 1.273.91 2.364 2.182 2.636l.364 2.91c.09.454.454.818.909.818h7.09c.455 0 .819-.364.91-.819l.363-3c1.091-.363 2-1.363 2-2.545 0-1-.545-1.818-1.272-2.273.09-.909.636-1.818 1.545-2.454 3.364-2.364 5.455-6.182 5.455-10.273 0-7.091-5.91-12.818-13.091-12.455-6.455.273-11.818 5.819-11.91 12.273C17 24.73 19 28.64 22.456 31.003m4.454 9.272-.182-1.818h5.91l-.182 1.818zm6.727-3.636h-8.272a.91.91 0 0 1-.91-.91.91.91 0 0 1 .91-.908h8.272c.455 0 .91.363.91.909a.91.91 0 0 1-.91.909M29 10.093c6.091-.272 11.182 4.637 11.182 10.637a10.66 10.66 0 0 1-4.637 8.818c-1.272.818-2.09 2.09-2.272 3.546h-7.455c-.182-1.364-1-2.637-2.273-3.546-2.909-2-4.636-5.364-4.636-8.91C19 15.094 23.546 10.367 29 10.094"/><path fill="#615efc" d="M29.272 14.637c3.455-.182 6.364 2.637 6.364 6.091 0 .546.364.91.91.91.544 0 .908-.364.908-.91 0-4.454-3.727-8.09-8.273-7.909a.91.91 0 0 0-.909.91c0 .545.455.908 1 .908m.274-8.363c.545 0 .909-.364.909-.91V1.82c0-.545-.364-.909-.91-.909-.545 0-.909.364-.909.91v3.545c0 .545.364.909.91.909m-6.456.452q.273.546.819.546c.09 0 .272 0 .363-.091C24.727 7 25 6.455 24.727 6l-1.364-3.273c-.182-.454-.727-.727-1.182-.454-.454.182-.727.727-.454 1.182zm-4.544 3.458a.88.88 0 0 0 1.272 0 .88.88 0 0 0 0-1.273l-2.545-2.546a.88.88 0 0 0-1.273 0 .88.88 0 0 0 0 1.273zm21.909.269L43 7.91a.88.88 0 0 0 0-1.273.88.88 0 0 0-1.273 0l-2.545 2.455a.88.88 0 0 0 0 1.272c.273.364.909.364 1.273.091m-5.728-3.09c.091.091.273.091.364.091.364 0 .727-.181.818-.545l1.364-3.273c.182-.454 0-1-.455-1.182-.454-.181-1 0-1.182.455l-1.363 3.273c-.182.454 0 1 .454 1.181"/></svg>
